X:1
T:Redhead No. 46, 87.87
T:Richard Redhead, 1853
T:Redhead No. 46, 87.87
T:Public Domain
C:Richard Redhead, 1853
Z:Public Domain
%%score ( 1 2 ) ( 3 4 )
L:1/8
M:4/4
K:G
V:1 treble 
V:2 treble 
V:3 bass 
V:4 bass 
V:1
 [DG]2 [DF]2 [B,G]2 [DB]2 | [EA]2 (B,C) [DG]2 [DF]2 | [B,E]2 [A,A]2 [A,D]2 [DG]2 | %3
 [DE]2 [^CE]2 D4 | D2 [DG]2 [DG]2 [DF]2 | [DA]2 [DB]2 (EC) [DB]2 | [DB]2 [Dd]2 [Ed]2 [Gc]2 | %7
 [GB]2 [FA]2 G4 |] %8
V:2
 x8 | x2 G2 x4 | x8 | x4 D4 | D2 x6 | x4 c2 x2 | x8 | x4 G4 |] %8
V:3
 [G,B,]2 [D,A,]2 [E,G,]2 [B,,G,]2 | [C,G,]2 [E,G,]2 [D,A,]2 [D,A,]2 | %2
 [D,G,]2 [C,E,]2 [C,F,]2 [B,,G,]2 | [A,,A,]2 (A,G,) [D,F,]4 | [B,,G,]2 [G,,B,]2 [D,B,]2 [D,A,]2 | %5
 [C,F,]2 [B,,G,]2 (G,F,) [G,,G,]2 | [G,,G,]2 [B,,G,]2 [C,G,]2 [C,E]2 | (C,2 z C) [G,,B,]4 |] %8
V:4
 x8 | x8 | x8 | x2 A,,2 x4 | x8 | x4 A,,2 x2 | x8 | D3 D,2 x3 |] %8

